static/images/icon-twitter.svg

<svg fill="none" viewBox="0 0 17 14" xmlns="http://www.w3.org/2000/svg"><path clip-rule="evenodd" d="m14.6599 2.16886c.7041-.42856 1.2447-1.10718 1.4994-1.915686-.6589.396639-1.3887.684854-2.165.840246-.622-.673114-1.5083-1.09342-2.4886-1.09342-1.88296 0-3.4095 1.55023-3.4095 3.46261 0 .27134.02998.5357.08815.78906-2.83343-.1442-5.34641-1.52289-7.02739-3.618001-.293529.511481-.46188 1.106261-.46188 1.740851 0 1.20129.60187 2.26095 1.5166 2.88214-.55852-.01798-1.08452-.17337-1.544237-.43278-.000361.01431-.000361.02862-.000361.0433 0 1.67792 1.175568 3.07735 2.734978 3.39546-.28576.07926-.58706.12164-.89829.12164-.21947 0-.4328-.02165-.64143-.06219.43388 1.37558 1.69344 2.37691 3.18512 2.40461-1.16708.9288-2.6369 1.4825-4.234246 1.4825-.275105 0-.546418-.0165-.813214-.049 1.50866.9828 3.30036 1.5563 5.22647 1.5563 6.27103 0 9.70063-5.27682 9.70063-9.85284 0-.14971-.0033-.29923-.01-.44801.666-.48764 1.2439-1.09746 1.7012-1.79222-.6118.27556-1.2686.46159-1.9584.54543z" fill-rule="evenodd"/></svg>

<svg viewBox="0 0 17 14" fill="none" xmlns="http://www.w3.org/2000/svg">
<path fill-rule="evenodd" clip-rule="evenodd" d="M14.6599 2.16886C15.364 1.7403 15.9046 1.06168 16.1593 0.253174C15.5004 0.649813 14.7706 0.938028 13.9943 1.09342C13.3723 0.420306 12.486 0 11.5057 0C9.62274 0 8.0962 1.55023 8.0962 3.46261C8.0962 3.73395 8.12618 3.99831 8.18435 4.25167C5.35092 4.10747 2.83794 2.72878 1.15696 0.633669C0.863431 1.14515 0.69508 1.73993 0.69508 2.37452C0.69508 3.57581 1.29695 4.63547 2.21168 5.25666C1.65316 5.23868 1.12716 5.08329 0.667443 4.82388C0.667082 4.83819 0.667082 4.8525 0.667082 4.86718C0.667082 6.5451 1.84265 7.94453 3.40206 8.26264C3.1163 8.3419 2.815 8.38428 2.50377 8.38428C2.2843 8.38428 2.07097 8.36263 1.86234 8.32209C2.29622 9.69767 3.55578 10.699 5.04746 10.7267C3.88038 11.6555 2.41056 12.2092 0.813214 12.2092C0.538109 12.2092 0.266796 12.1927 0 12.1602C1.50866 13.143 3.30036 13.7165 5.22647 13.7165C11.4975 13.7165 14.9271 8.43968 14.9271 3.86366C14.9271 3.71395 14.9238 3.56443 14.9171 3.41565C15.5831 2.92801 16.161 2.31819 16.6183 1.62343C16.0065 1.89899 15.3497 2.08502 14.6599 2.16886Z" />
</svg>
